X:215
T: O'Shaughnessy's
T: R\'il U\'i Sheachnasaigh
S: B.Breathnach:"Ceol Rince na hEireann" IV/148
Z: B.Black
L: 1/8
M: 4/4
R: reel
K: G
BGGG ABce|dggg agfe|dggg fgab|c'bag fedc|
BGGG ABce|dggg agfe|dggf dedc|BG (3AcA G3 ||
B|cBAG FGAF|DGGF DGGB|cBAG FGAB|cedc BGGB|
cBAG FGAF|DGGG AGFE|DGGF DEDc|BGAF G4 ||


